(File: /home/nkp/linuxcnc/configs/gas/ngc/12.dxf)
(Time: Mon Mar 23 21:29:01 2020)G21  G90 G64 P0.01 G17 G40 G49
G0 X0088.851 Y0037.350
m3
 F0
F400
G1 X0088.851 Y0035.387
G3 X0092.331 Y0028.150 I0009.499 J0000.113
G1 X0093.311 Y0027.312
G2 X0093.652 Y0026.414 I-000.650 J-000.760
G1 X0092.953 Y0021.406
G3 X0093.602 Y0020.328 I0000.990 J-000.138
G1 X0094.372 Y0020.048
G3 X0095.550 Y0020.439 I0000.342 J0000.940
G2 X0097.537 Y0015.350 I0002.800 J-001.839
G1 X0049.162 Y0015.350
G2 X0051.150 Y0020.439 I-000.812 J0003.250
G3 X0052.328 Y0020.048 I0000.836 J0000.549
G1 X0053.098 Y0020.328
G3 X0053.747 Y0021.406 I-000.342 J0000.940
G1 X0053.048 Y0026.414
G2 X0053.389 Y0027.312 I0000.990 J0000.138
G1 X0054.369 Y0028.150
G3 X0057.849 Y0035.387 I-006.019 J0007.350
G1 X0057.849 Y0037.350
G2 X0059.349 Y0038.850 I0001.500 J0000.000
G1 X0087.351 Y0038.850
G2 X0088.851 Y0037.350 I0000.000 J-001.500
m5
G0 X0047.537 Y0038.850
m3
 F400
G2 X0045.550 Y0033.761 I0000.812 J-003.250
G3 X0044.372 Y0034.152 I-000.836 J-000.549
G1 X0043.602 Y0033.872
G3 X0042.953 Y0032.794 I0000.342 J-000.940
G1 X0043.652 Y0027.786
G2 X0043.311 Y0026.888 I-000.990 J-000.138
G1 X0042.557 Y0026.243
G3 X0033.800 Y0007.239 I0016.243 J-019.004
G1 X0033.800 Y0003.350
G2 X0032.300 Y0001.850 I-001.500 J0000.000
G1 X0009.650 Y0001.850
G2 X0009.350 Y0002.150 I0000.000 J0000.300
G1 X0009.350 Y0003.350
G3 X0009.263 Y0004.370 I-006.000 J0000.000
G3 X0008.640 Y0004.768 I-000.493 J-000.085
G1 X0007.037 Y0004.338
G3 X0006.671 Y0003.789 I0000.129 J-000.483
G2 X0003.789 Y0006.671 I-003.321 J-000.439
G3 X0004.338 Y0007.037 I0000.066 J0000.496
G1 X0004.768 Y0008.640
G3 X0004.370 Y0009.263 I-000.483 J0000.129
G3 X0003.226 Y0009.349 I-001.020 J-005.913
G1 X0002.150 Y0009.349
G2 X0001.850 Y0009.649 I0000.000 J0000.300
G1 X0001.850 Y0030.051
G2 X0002.150 Y0030.351 I0000.300 J0000.000
G1 X0003.226 Y0030.351
G3 X0004.370 Y0030.437 I0000.124 J0005.999
G3 X0004.768 Y0031.059 I-000.085 J0000.493
G1 X0004.338 Y0032.663
G3 X0003.789 Y0033.029 I-000.483 J-000.129
G2 X0006.671 Y0035.910 I-000.439 J0003.321
G3 X0007.037 Y0035.362 I0000.496 J-000.066
G1 X0008.640 Y0034.932
G3 X0009.263 Y0035.330 I0000.129 J0000.483
G3 X0009.350 Y0036.350 I-005.913 J0001.020
G1 X0009.350 Y0038.550
G2 X0009.650 Y0038.850 I0000.300 J0000.000
G1 X0047.537 Y0038.850
m5
G0 X0140.029 Y0035.910
m3
 F400
G2 X0142.910 Y0033.029 I0003.321 J0000.439
G3 X0142.362 Y0032.663 I-000.066 J-000.496
G1 X0141.932 Y0031.059
G3 X0142.330 Y0030.437 I0000.483 J-000.129
G3 X0143.474 Y0030.351 I0001.020 J0005.913
G1 X0144.550 Y0030.351
G2 X0144.850 Y0030.051 I0000.000 J-000.300
G1 X0144.850 Y0009.649
G2 X0144.550 Y0009.349 I-000.300 J0000.000
G1 X0143.474 Y0009.349
G3 X0142.330 Y0009.263 I-000.124 J-005.999
G3 X0141.932 Y0008.640 I0000.085 J-000.493
G1 X0142.362 Y0007.037
G3 X0142.910 Y0006.671 I0000.483 J0000.129
G2 X0140.029 Y0003.789 I0000.439 J-003.321
G3 X0139.663 Y0004.338 I-000.496 J0000.066
G1 X0138.059 Y0004.768
G3 X0137.437 Y0004.370 I-000.129 J-000.483
G3 X0137.350 Y0003.350 I0005.913 J-001.020
G1 X0137.350 Y0002.150
G2 X0137.050 Y0001.850 I-000.300 J0000.000
G1 X0114.400 Y0001.850
G2 X0112.900 Y0003.350 I0000.000 J0001.500
G1 X0112.900 Y0007.239
G3 X0104.143 Y0026.243 I-025.000 J0000.000
G1 X0103.389 Y0026.888
G2 X0103.048 Y0027.786 I0000.650 J0000.760
G1 X0103.747 Y0032.794
G3 X0103.098 Y0033.872 I-000.990 J0000.138
G1 X0102.328 Y0034.152
G3 X0101.150 Y0033.761 I-000.342 J-000.940
G2 X0099.162 Y0038.850 I-002.800 J0001.839
G1 X0137.050 Y0038.850
G2 X0137.350 Y0038.550 I0000.000 J-000.300
G1 X0137.350 Y0036.350
G3 X0137.437 Y0035.330 I0006.000 J0000.000
G3 X0138.059 Y0034.932 I0000.493 J0000.085
G1 X0139.663 Y0035.362
G3 X0140.029 Y0035.910 I-000.129 J0000.483
m5
G0 X0000.000 Y0000.000
M2
